images/weth.svg

<svg height="250" viewBox="0 0 250 250" width="250" xmlns="http://www.w3.org/2000/svg"><path d="m70.085938 247.949219c62.835937 0 62.835937-.933594 73.492187-4.097657 13.921875-4.132812-39.3125-40.984374-73.492187-40.984374-34.179688 0-61.890626 10.09375-61.890626 22.542968 0 12.449219 27.710938 22.539063 61.890626 22.539063zm0 0"/><path d="m212.773438 56.269531 2.886718 3.113281-2.523437 3.414063c-81.953125 110.808594-129.164063 160.976563-149.195313 154.25-12.199218-4.101563-24.433594-16.425781-36.671875-34.324219-4.300781-6.292968-8.339843-12.917968-12.011719-19.507812-2.445312-4.390625-4.515624-8.394532-5.589843-10.648438-1.371094-2.878906-1.953125-4.652344-2.410157-6.976562-.027343-.144532-.027343-.144532-.054687-.28125-.191406-.988282-.257813-1.300782-.402344-1.839844-2.464843-9.292969-3.726562-18.921875-3.726562-28.714844 0-61.679687 50-111.679687 111.679687-111.679687 19.324219 0 37.945313 4.917969 54.449219 14.148437l.425781.265625c13.511719 9.410157 27.882813 22.335938 43.144532 38.78125zm-48.792969-30.226562c-14.929688-8.304688-31.75-12.722657-49.226563-12.722657-56.019531 0-101.433594 45.414063-101.433594 101.433594 0 8.902344 1.144532 17.648438 3.382813 26.085938.222656.835937.324219 1.308594.558594 2.515625.023437.128906.023437.128906.046875.25.296875 1.5.609375 2.457031 1.605468 4.550781.980469 2.058594 2.953126 5.867188 5.292969 10.070312 3.53125 6.335938 7.410157 12.699219 11.523438 18.714844 11.054687 16.167969 22.015625 27.214844 31.476562 30.390625 12.613281 4.238281 60.101563-46.03125 135.148438-147.195312-13.625-14.378907-26.425781-25.746094-38.375-34.09375zm0 0"/><path d="m163.980469 26.042969c-14.929688-8.304688-31.75-12.722657-49.226563-12.722657-56.019531 0-101.433594 45.414063-101.433594 101.433594 0 8.902344 1.144532 17.648438 3.382813 26.085938.222656.835937.324219 1.308594.558594 2.515625.023437.128906.023437.128906.046875.25.296875 1.5.609375 2.457031 1.605468 4.550781.980469 2.058594 2.953126 5.867188 5.292969 10.070312 3.53125 6.335938 7.410157 12.699219 11.523438 18.714844 11.054687 16.167969 22.015625 27.214844 31.476562 30.390625 12.613281 4.238281 60.101563-46.03125 135.148438-147.195312-13.625-14.378907-26.425781-25.746094-38.375-34.09375zm0 0" fill="#ec1c79"/><path d="m135.246094 246.925781c-61.679688 0-111.679688-50-111.679688-111.679687 0-61.679688 50-111.679688 111.679688-111.679688 61.679687 0 111.679687 50 111.679687 111.679688 0 61.679687-50 111.679687-111.679687 111.679687zm0-10.246093c56.019531 0 101.433594-45.414063 101.433594-101.433594 0-56.019532-45.414063-101.433594-101.433594-101.433594-56.019532 0-101.433594 45.414062-101.433594 101.433594 0 56.019531 45.414062 101.433594 101.433594 101.433594zm0 0"/><path d="m135.246094 236.679688c56.019531 0 101.433594-45.414063 101.433594-101.433594 0-56.019532-45.414063-101.433594-101.433594-101.433594-56.019532 0-101.433594 45.414062-101.433594 101.433594 0 56.019531 45.414062 101.433594 101.433594 101.433594zm0 0" fill="#fff"/><path d="m59.367188 156.023438-13.425782-40.449219h11.761719l7 23.238281 7.746094-23.351562h9.582031l7.746094 23.351562 7-23.238281h11.535156l-13.425781 40.449219h-9.699219l-8.089844-23.121094-8.03125 23.121094zm53.363281-.285157v-40.164062h32.300781v9.464843h-21.285156v6.082032h19.277344v8.78125h-19.277344v6.367187h21.574218v9.46875zm48.082031 0v-30.410156h-12.050781v-9.753906h35.230469v9.753906h-12.050782v30.410156zm28.054688 0v-40.164062h11.132812v15.03125h14.285156v-15.03125h11.132813v40.164062h-11.132813v-15.261719h-14.285156v15.261719zm0 0" fill-rule="evenodd"/><path d="m9.730469 103.492188c-2.835938-1.417969-3.984375-4.863282-2.566407-7.699219 1.417969-2.832031 4.863282-3.980469 7.695313-2.5625l16.394531 8.195312c2.835938 1.417969 3.984375 4.863281 2.566406 7.699219-1.417968 2.832031-4.863281 3.980469-7.699218 2.5625zm0 0"/><path d="m7.839844 130.675781c-2.875-1.328125-4.132813-4.738281-2.804688-7.613281 1.328125-2.878906 4.738282-4.136719 7.613282-2.808594l16.394531 7.566406c2.878906 1.328126 4.132812 4.738282 2.804687 7.613282-1.328125 2.878906-4.734375 4.132812-7.613281 2.808594zm0 0"/></svg>

<?xml version="1.0" encoding="UTF-8"?>
<svg xmlns="http://www.w3.org/2000/svg" xmlns:xlink="http://www.w3.org/1999/xlink" width="250px" height="250px" viewBox="0 0 250 250" version="1.1">
<g id="surface1">
<path style=" stroke:none;fill-rule:nonzero;fill:rgb(0%,0%,0%);fill-opacity:1;" d="M 70.085938 247.949219 C 132.921875 247.949219 132.921875 247.015625 143.578125 243.851562 C 157.5 239.71875 104.265625 202.867188 70.085938 202.867188 C 35.90625 202.867188 8.195312 212.960938 8.195312 225.410156 C 8.195312 237.859375 35.90625 247.949219 70.085938 247.949219 Z M 70.085938 247.949219 "/>
<path style=" stroke:none;fill-rule:nonzero;fill:rgb(0%,0%,0%);fill-opacity:1;" d="M 212.773438 56.269531 L 215.660156 59.382812 L 213.136719 62.796875 C 131.183594 173.605469 83.972656 223.773438 63.941406 217.046875 C 51.742188 212.945312 39.507812 200.621094 27.269531 182.722656 C 22.96875 176.429688 18.929688 169.804688 15.257812 163.214844 C 12.8125 158.824219 10.742188 154.820312 9.667969 152.566406 C 8.296875 149.6875 7.714844 147.914062 7.257812 145.589844 C 7.230469 145.445312 7.230469 145.445312 7.203125 145.308594 C 7.011719 144.320312 6.945312 144.007812 6.800781 143.46875 C 4.335938 134.175781 3.074219 124.546875 3.074219 114.753906 C 3.074219 53.074219 53.074219 3.074219 114.753906 3.074219 C 134.078125 3.074219 152.699219 7.992188 169.203125 17.222656 L 169.628906 17.488281 C 183.140625 26.898438 197.511719 39.824219 212.773438 56.269531 Z M 163.980469 26.042969 C 149.050781 17.738281 132.230469 13.320312 114.753906 13.320312 C 58.734375 13.320312 13.320312 58.734375 13.320312 114.753906 C 13.320312 123.65625 14.464844 132.402344 16.703125 140.839844 C 16.925781 141.675781 17.027344 142.148438 17.261719 143.355469 C 17.285156 143.484375 17.285156 143.484375 17.308594 143.605469 C 17.605469 145.105469 17.917969 146.0625 18.914062 148.15625 C 19.894531 150.214844 21.867188 154.023438 24.207031 158.226562 C 27.738281 164.5625 31.617188 170.925781 35.730469 176.941406 C 46.785156 193.109375 57.746094 204.15625 67.207031 207.332031 C 79.820312 211.570312 127.308594 161.300781 202.355469 60.136719 C 188.730469 45.757812 175.929688 34.390625 163.980469 26.042969 Z M 163.980469 26.042969 "/>
<path style=" stroke:none;fill-rule:nonzero;fill:rgb(92.54902%,10.980392%,47.450981%);fill-opacity:1;" d="M 163.980469 26.042969 C 149.050781 17.738281 132.230469 13.320312 114.753906 13.320312 C 58.734375 13.320312 13.320312 58.734375 13.320312 114.753906 C 13.320312 123.65625 14.464844 132.402344 16.703125 140.839844 C 16.925781 141.675781 17.027344 142.148438 17.261719 143.355469 C 17.285156 143.484375 17.285156 143.484375 17.308594 143.605469 C 17.605469 145.105469 17.917969 146.0625 18.914062 148.15625 C 19.894531 150.214844 21.867188 154.023438 24.207031 158.226562 C 27.738281 164.5625 31.617188 170.925781 35.730469 176.941406 C 46.785156 193.109375 57.746094 204.15625 67.207031 207.332031 C 79.820312 211.570312 127.308594 161.300781 202.355469 60.136719 C 188.730469 45.757812 175.929688 34.390625 163.980469 26.042969 Z M 163.980469 26.042969 "/>
<path style=" stroke:none;fill-rule:nonzero;fill:rgb(0%,0%,0%);fill-opacity:1;" d="M 135.246094 246.925781 C 73.566406 246.925781 23.566406 196.925781 23.566406 135.246094 C 23.566406 73.566406 73.566406 23.566406 135.246094 23.566406 C 196.925781 23.566406 246.925781 73.566406 246.925781 135.246094 C 246.925781 196.925781 196.925781 246.925781 135.246094 246.925781 Z M 135.246094 236.679688 C 191.265625 236.679688 236.679688 191.265625 236.679688 135.246094 C 236.679688 79.226562 191.265625 33.8125 135.246094 33.8125 C 79.226562 33.8125 33.8125 79.226562 33.8125 135.246094 C 33.8125 191.265625 79.226562 236.679688 135.246094 236.679688 Z M 135.246094 236.679688 "/>
<path style=" stroke:none;fill-rule:nonzero;fill:rgb(100%,100%,100%);fill-opacity:1;" d="M 135.246094 236.679688 C 191.265625 236.679688 236.679688 191.265625 236.679688 135.246094 C 236.679688 79.226562 191.265625 33.8125 135.246094 33.8125 C 79.226562 33.8125 33.8125 79.226562 33.8125 135.246094 C 33.8125 191.265625 79.226562 236.679688 135.246094 236.679688 Z M 135.246094 236.679688 "/>
<path style=" stroke:none;fill-rule:evenodd;fill:rgb(0%,0%,0%);fill-opacity:1;" d="M 59.367188 156.023438 L 45.941406 115.574219 L 57.703125 115.574219 L 64.703125 138.8125 L 72.449219 115.460938 L 82.03125 115.460938 L 89.777344 138.8125 L 96.777344 115.574219 L 108.3125 115.574219 L 94.886719 156.023438 L 85.1875 156.023438 L 77.097656 132.902344 L 69.066406 156.023438 Z M 112.730469 155.738281 L 112.730469 115.574219 L 145.03125 115.574219 L 145.03125 125.039062 L 123.746094 125.039062 L 123.746094 131.121094 L 143.023438 131.121094 L 143.023438 139.902344 L 123.746094 139.902344 L 123.746094 146.269531 L 145.320312 146.269531 L 145.320312 155.738281 Z M 160.8125 155.738281 L 160.8125 125.328125 L 148.761719 125.328125 L 148.761719 115.574219 L 183.992188 115.574219 L 183.992188 125.328125 L 171.941406 125.328125 L 171.941406 155.738281 Z M 188.867188 155.738281 L 188.867188 115.574219 L 200 115.574219 L 200 130.605469 L 214.285156 130.605469 L 214.285156 115.574219 L 225.417969 115.574219 L 225.417969 155.738281 L 214.285156 155.738281 L 214.285156 140.476562 L 200 140.476562 L 200 155.738281 Z M 188.867188 155.738281 "/>
<path style=" stroke:none;fill-rule:nonzero;fill:rgb(0%,0%,0%);fill-opacity:1;" d="M 9.730469 103.492188 C 6.894531 102.074219 5.746094 98.628906 7.164062 95.792969 C 8.582031 92.960938 12.027344 91.8125 14.859375 93.230469 L 31.253906 101.425781 C 34.089844 102.84375 35.238281 106.289062 33.820312 109.125 C 32.402344 111.957031 28.957031 113.105469 26.121094 111.6875 Z M 9.730469 103.492188 "/>
<path style=" stroke:none;fill-rule:nonzero;fill:rgb(0%,0%,0%);fill-opacity:1;" d="M 7.839844 130.675781 C 4.964844 129.347656 3.707031 125.9375 5.035156 123.0625 C 6.363281 120.183594 9.773438 118.925781 12.648438 120.253906 L 29.042969 127.820312 C 31.921875 129.148438 33.175781 132.558594 31.847656 135.433594 C 30.519531 138.3125 27.113281 139.566406 24.234375 138.242188 Z M 7.839844 130.675781 "/>
</g>
</svg>
